rospo-dark/16x16/actions/labplot-xy-plot-four-axes.svg

<svg height="16" viewBox="0 0 16 16" width="16" xmlns="http://www.w3.org/2000/svg"><path d="m0 0v16h16v-16h-15zm1 1h12.71875l-.46875.46875-.8125.8125-1.3125 1.3125-2.125-2.125-1.53125 1.53125-.46875.46875-.84375.8125-1.6875 1.71875h-3.46875zm14 .125v13.71875l-.28125-.28125-.75-.75-.84375-.8125-1.28125-1.3125-.71875-.6875-2.125 2.09375-1.3125-1.28125-.8125-.8125-2-2h-3.875v-2h3.875l2-2 .8125-.84375 1.3125-1.28125 2.125 2.125 2-2 .84375-.84375zm-14 8.875h3.46875l1.6875 1.6875.84375.84375.46875.46875 1.53125 1.53125.53125-.53125 1.59375-1.59375 1.3125 1.28125.5.53125.3125.3125.03125.03125.4375.4375h-12.71875z" fill="#d3dae3"/></svg>

<?xml version="1.0" encoding="UTF-8" standalone="no"?>
<svg xmlns="http://www.w3.org/2000/svg" width="22" height="22" viewBox="0 0 22 22">
 <defs>
  <style type="text/css" id="current-color-scheme">
   .ColorScheme-Text { color:#d3dae3; } .ColorScheme-Highlight { color:#5294e2; }
  </style>
 </defs>
 <path style="fill:currentColor;opacity:1" class="ColorScheme-Text" transform="translate(3 3)" d="M 0 0 L 0 16 L 16 16 L 16 0 L 1 0 L 0 0 z M 1 1 L 13.71875 1 L 13.25 1.46875 L 12.4375 2.28125 L 11.125 3.59375 L 9 1.46875 L 7.46875 3 L 7 3.46875 L 6.15625 4.28125 L 4.46875 6 L 1 6 L 1 1 z M 15 1.125 L 15 14.84375 L 14.71875 14.5625 L 13.96875 13.8125 L 13.125 13 L 11.84375 11.6875 L 11.125 11 L 9 13.09375 L 7.6875 11.8125 L 6.875 11 L 4.875 9 L 1 9 L 1 7 L 4.875 7 L 6.875 5 L 7.6875 4.15625 L 9 2.875 L 11.125 5 L 13.125 3 L 13.96875 2.15625 L 15 1.125 z M 1 10 L 4.46875 10 L 6.15625 11.6875 L 7 12.53125 L 7.46875 13 L 9 14.53125 L 9.53125 14 L 11.125 12.40625 L 12.4375 13.6875 L 12.9375 14.21875 L 13.25 14.53125 L 13.28125 14.5625 L 13.71875 15 L 1 15 L 1 10 z"/>
</svg>
